widgets/FullScreen/css/images/fullscreen-restore.svg

<svg width="14" height="14" xmlns="http://www.w3.org/2000/svg"><path d="M2 9H0v5h5v-2H2V9zM0 5h2V2h3V0H0v5zm12 7H9v2h5V9h-2v3zM9 0v2h3v3h2V0H9z" fill-rule="evenodd"/></svg>

<?xml version="1.0" encoding="UTF-8" standalone="no"?>
<svg width="14px" height="14px" viewBox="0 0 14 14" version="1.1" xmlns="http://www.w3.org/2000/svg" xmlns:xlink="http://www.w3.org/1999/xlink" xmlns:sketch="http://www.bohemiancoding.com/sketch/ns">
    <!-- Generator: Sketch 3.4.3 (16044) - http://www.bohemiancoding.com/sketch -->
    <title>fullscreen</title>
    <desc>Created with Sketch.</desc>
    <defs></defs>
    <g id="Page-1" stroke="none" stroke-width="1" fill="none" fill-rule="evenodd" sketch:type="MSPage">
        <g id="Foldable-Theme-Layout01" sketch:type="MSArtboardGroup" transform="translate(-991.000000, -109.000000)" fill="#000000">
            <g id="FullScreen" sketch:type="MSLayerGroup" transform="translate(982.000000, 100.000000)">
                <g id="fullscreen" transform="translate(9.000000, 9.000000)" sketch:type="MSShapeGroup">
                    <path d="M2,9 L0,9 L0,14 L5,14 L5,12 L2,12 L2,9 L2,9 Z M0,5 L2,5 L2,2 L5,2 L5,0 L0,0 L0,5 L0,5 Z M12,12 L9,12 L9,14 L14,14 L14,9 L12,9 L12,12 L12,12 Z M9,0 L9,2 L12,2 L12,5 L14,5 L14,0 L9,0 L9,0 Z" id="Shape"></path>
                </g>
            </g>
        </g>
    </g>
</svg>
